images/svg/logo.svg

<svg width="56" height="56" viewBox="0 0 56 56" fill="none" xmlns="http://www.w3.org/2000/svg">
<g clip-path="url(#clip0_0_25)">
<path d="M28.0729 25.3306C27.2229 25.5977 26.3386 25.7399 25.4477 25.7528C24.0655 25.8018 22.6981 26.0551 21.39 26.5043C18.506 27.3908 18.7366 29.33 19.1612 30.7113C19.1736 30.7515 20.6389 34.6594 26.0288 33.0027C28.7592 32.1634 29.2625 29.487 29.7941 26.6505C29.9456 25.8432 30.0996 25.0263 30.3091 24.2443C29.6394 24.745 28.8805 25.1136 28.0729 25.3306Z" fill="white"/>
<path d="M33.39 21.939C32.2036 22.9887 31.8321 24.9167 31.4479 26.9639C31.3567 27.4462 31.2626 27.9392 31.1562 28.4324C31.894 28.4564 32.6302 28.3493 33.3306 28.1162C36.1157 27.2601 36.457 23.9652 36.1165 22.8575C35.8908 22.123 35.6301 21.298 33.39 21.939Z" fill="white"/>
<path d="M19.2465 54.2307L19.2505 54.2295C19.6802 53.703 20.3844 53.4865 21.0356 53.6808L22.3297 54.0666C22.6554 54.1639 23.0077 54.0556 23.2226 53.7921L24.0773 52.7458C24.507 52.2193 25.2112 52.0029 25.8624 52.1971L27.1564 52.583C27.4822 52.6802 27.8345 52.5719 28.0494 52.3085L28.9041 51.2621C29.3338 50.7357 30.0379 50.5192 30.6892 50.7134L31.9832 51.0993C32.309 51.1966 32.6613 51.0883 32.8761 50.8248L33.7308 49.7785C34.1605 49.252 34.8647 49.0355 35.5159 49.2298L36.81 49.6156C37.1357 49.7129 37.488 49.6046 37.7029 49.3411L38.5576 48.2948C38.9873 47.7683 39.6915 47.5519 40.3427 47.7461L41.6367 48.132C41.9625 48.2292 42.3148 48.1209 42.5297 47.8575L43.3844 46.8111C43.8134 46.2837 44.5182 46.067 45.1695 46.2624L46.4635 46.6483C46.7893 46.7456 47.1416 46.6373 47.3564 46.3738L48.2111 45.3275C48.6408 44.8014 49.3445 44.5851 49.9954 44.779C50.1659 44.8317 50.3515 44.7855 50.4773 44.6591C50.6031 44.5326 50.6484 44.3467 50.5947 44.1766L50.0339 42.3521L17.8555 52.2432L18.4163 54.0677C18.4681 54.2369 18.6089 54.3639 18.7826 54.398C18.9562 54.4321 19.1345 54.3678 19.2465 54.2307Z" fill="white"/>
<path d="M8.81723 9.4229L7.8096 10.6562C7.37989 11.1827 6.67574 11.3992 6.0245 11.205C5.85466 11.1528 5.66992 11.1988 5.54435 11.3245C5.41878 11.4502 5.37295 11.6349 5.42524 11.8047L5.98607 13.6293L38.1645 3.73815L37.6037 1.91363C37.5519 1.74441 37.4111 1.61746 37.2374 1.58336C37.0638 1.54926 36.8854 1.61354 36.7735 1.7506C36.3438 2.27709 35.6396 2.49354 34.9884 2.29931L33.4595 1.84829C33.274 1.79259 33.0732 1.8543 32.9511 2.00457L31.9434 3.23791C31.5137 3.76441 30.8096 3.98085 30.1583 3.78662L28.6327 3.33196C28.4472 3.27625 28.2465 3.33797 28.1243 3.48824L27.1167 4.72158C26.687 5.24807 25.9828 5.46452 25.3316 5.27029L23.8059 4.81562C23.6205 4.75992 23.4197 4.82163 23.2975 4.9719L22.2899 6.20525C21.8602 6.73174 21.156 6.94818 20.5048 6.75395L18.9792 6.29929C18.7937 6.24358 18.5929 6.3053 18.4708 6.45557L17.4631 7.68891C17.0334 8.21541 16.3293 8.43185 15.678 8.23762L14.1524 7.78296C13.9669 7.72725 13.7662 7.78896 13.644 7.93923L12.6364 9.17258C12.2067 9.69907 11.5025 9.91552 10.8513 9.72129L9.32565 9.26662C9.14017 9.21091 8.9394 9.27263 8.81723 9.4229Z" fill="white"/>
<path d="M24.7948 17.5324C16.8065 19.9879 11.7561 26.6734 13.5291 32.4414C15.302 38.2094 23.2357 40.9039 31.224 38.4484C39.2123 35.9929 44.2627 29.3074 42.4897 23.5394C40.7167 17.7714 32.7831 15.0769 24.7948 17.5324ZM33.8252 29.7246C32.8264 30.0574 31.7691 30.1785 30.7208 30.0801C30.0854 32.0804 28.9761 33.8565 26.5225 34.6107C20.6097 36.4282 18.0014 32.6691 17.5514 31.205C16.6092 28.14 17.8295 25.8367 20.8945 24.8946C22.3383 24.4038 23.8462 24.1271 25.3702 24.0735C26.119 24.0612 26.8621 23.9424 27.5774 23.7208C28.5886 23.4483 29.5022 22.8959 30.2132 22.127C30.9093 21.3693 31.763 20.7734 32.7141 20.3809C33.7116 20.0743 36.7364 19.1446 37.7255 22.3624C38.3462 24.3816 37.574 28.5723 33.8252 29.7246Z" fill="white"/>
<path d="M38.8362 5.29215L6.30379 15.2921C6.67568 21.5217 7.7504 27.6894 9.50749 33.6776C11.4161 39.6194 13.9913 45.326 17.184 50.6884L49.7164 40.6885C49.3445 34.4588 48.2698 28.2911 46.5127 22.3029C44.6041 16.3611 42.0289 10.6545 38.8362 5.29215ZM31.7193 40.0572C22.8461 42.7847 13.9659 39.5887 11.9209 32.9358C9.87589 26.2829 15.4277 18.6508 24.3009 15.9233C33.1741 13.1959 42.0543 16.3918 44.0993 23.0447C46.1443 29.6976 40.5925 37.3297 31.7193 40.0572Z" fill="white"/>
</g>
<defs>
<clipPath id="clip0_0_25">
<rect width="56" height="56" fill="white"/>
</clipPath>
</defs>
</svg>

<svg xmlns="http://www.w3.org/2000/svg" width="56" height="56" fill="none"><g fill="#fff" clip-path="url(#a)"><path d="M28.073 25.33c-.85.268-1.734.41-2.625.423-1.383.049-2.75.302-4.058.751-2.884.887-2.653 2.826-2.229 4.207.013.04 1.478 3.948 6.868 2.292 2.73-.84 3.233-3.516 3.765-6.352.152-.808.306-1.625.515-2.407-.67.501-1.428.87-2.236 1.087ZM33.39 21.939c-1.186 1.05-1.558 2.978-1.942 5.025-.091.482-.185.975-.292 1.468a6.243 6.243 0 0 0 2.175-.316c2.785-.856 3.126-4.15 2.785-5.258-.225-.735-.486-1.56-2.726-.919ZM19.247 54.23h.003a1.683 1.683 0 0 1 1.786-.55l1.294.387a.841.841 0 0 0 .893-.275l.854-1.046a1.683 1.683 0 0 1 1.785-.549l1.294.386a.842.842 0 0 0 .893-.274l.855-1.047a1.683 1.683 0 0 1 1.785-.549l1.294.386a.841.841 0 0 0 .893-.274l.855-1.047a1.683 1.683 0 0 1 1.785-.548l1.294.386a.841.841 0 0 0 .893-.275l.855-1.046a1.683 1.683 0 0 1 1.785-.549l1.294.386a.842.842 0 0 0 .893-.274l.854-1.047a1.68 1.68 0 0 1 1.785-.549l1.295.386a.841.841 0 0 0 .892-.274l.855-1.047a1.683 1.683 0 0 1 1.784-.548.48.48 0 0 0 .6-.602l-.561-1.825-32.178 9.891.56 1.825a.48.48 0 0 0 .83.163ZM8.817 9.423 7.81 10.656a1.683 1.683 0 0 1-1.785.549.48.48 0 0 0-.6.6l.561 1.824 32.178-9.89-.56-1.825a.48.48 0 0 0-.83-.163 1.683 1.683 0 0 1-1.786.548l-1.529-.45a.478.478 0 0 0-.508.156l-1.008 1.233a1.683 1.683 0 0 1-1.785.549l-1.525-.455a.478.478 0 0 0-.509.156l-1.007 1.234a1.683 1.683 0 0 1-1.785.548l-1.526-.454a.478.478 0 0 0-.509.156L22.29 6.205a1.683 1.683 0 0 1-1.785.549l-1.526-.455a.478.478 0 0 0-.508.157l-1.008 1.233a1.683 1.683 0 0 1-1.785.549l-1.526-.455a.478.478 0 0 0-.508.156l-1.008 1.234a1.683 1.683 0 0 1-1.785.548l-1.525-.454a.478.478 0 0 0-.509.156Z"/><path d="M24.795 17.532c-7.989 2.456-13.039 9.141-11.266 14.91 1.773 5.767 9.707 8.462 17.695 6.006 7.988-2.455 13.039-9.14 11.266-14.909-1.773-5.768-9.707-8.462-17.695-6.007Zm9.03 12.193a7.58 7.58 0 0 1-3.104.355c-.636 2-1.745 3.776-4.198 4.53-5.913 1.818-8.522-1.94-8.972-3.405-.942-3.065.279-5.368 3.344-6.31a15.611 15.611 0 0 1 4.475-.822 7.897 7.897 0 0 0 2.207-.352 5.56 5.56 0 0 0 2.636-1.594 7.046 7.046 0 0 1 2.501-1.746c.998-.307 4.022-1.236 5.011 1.981.621 2.02-.151 6.21-3.9 7.363Z"/><path d="m38.836 5.292-32.532 10a82.831 82.831 0 0 0 3.203 18.386 82.676 82.676 0 0 0 7.677 17.01l32.532-10a82.831 82.831 0 0 0-3.203-18.385 82.674 82.674 0 0 0-7.677-17.01ZM31.72 40.057c-8.873 2.728-17.753-.468-19.798-7.121-2.045-6.653 3.507-14.285 12.38-17.013 8.873-2.727 17.753.469 19.798 7.122 2.045 6.653-3.506 14.285-12.38 17.012Z"/></g><defs><clipPath id="a"><path fill="#fff" d="M0 0h56v56H0z"/></clipPath></defs></svg>
